assets/icons/24px/outline/arrow-thick-right-24px.svg

<svg width="24" height="24" viewBox="0 0 24 24" fill="none" xmlns="http://www.w3.org/2000/svg">
<path d="M19.1716 14.8284L17.7574 16.2426C16.8903 17.1097 16.4567 17.5433 15.9054 17.7716C15.3541 18 14.741 18 13.5147 18H4.27324C3.29796 18 2.81033 18 2.67894 17.7013C2.54756 17.4027 2.87707 17.0432 3.53608 16.3243L5.02234 14.7029C6.19869 13.4196 6.78686 12.778 6.78686 12C6.78686 11.222 6.19869 10.5804 5.02234 9.2971L3.53608 7.67572C2.87707 6.9568 2.54756 6.59734 2.67894 6.29867C2.81033 6 3.29796 6 4.27324 6L13.5147 6C14.741 6 15.3541 6 15.9054 6.22836C16.4567 6.45672 16.8903 6.89027 17.7574 7.75736L19.1716 9.17157C20.5049 10.5049 21.1716 11.1716 21.1716 12C21.1716 12.8284 20.5049 13.4951 19.1716 14.8284Z" stroke="white" stroke-width="2" stroke-linecap="round" stroke-linejoin="round"/>
</svg>

<svg width="24" height="24" fill="none" xmlns="http://www.w3.org/2000/svg"><path d="M19.172 14.828l-1.415 1.415c-.867.867-1.3 1.3-1.852 1.529-.55.228-1.164.228-2.39.228H4.273c-.975 0-1.463 0-1.594-.299-.131-.298.198-.658.857-1.377l1.486-1.621C6.2 13.42 6.787 12.778 6.787 12c0-.778-.588-1.42-1.765-2.703L3.536 7.676c-.659-.72-.988-1.079-.857-1.377C2.81 6 3.298 6 4.273 6h9.242c1.226 0 1.84 0 2.39.228.552.229.985.662 1.852 1.53l1.415 1.414c1.333 1.333 2 2 2 2.828 0 .828-.667 1.495-2 2.828z" stroke="#fff" stroke-width="2" stroke-linecap="round" stroke-linejoin="round"/></svg>
